abel/img/choose3.svg

<svg width="119" height="92" viewBox="0 0 119 92" fill="none" xmlns="http://www.w3.org/2000/svg">
<path d="M64.1507 30.2834C63.873 30.2849 63.5984 30.226 63.3457 30.1109L59.5124 28.1942L55.5832 30.1109C55.2752 30.251 54.9357 30.307 54.599 30.2733C54.2624 30.2397 53.9407 30.1175 53.6665 29.9193C53.3917 29.7172 53.1757 29.4455 53.041 29.1322C52.9062 28.8188 52.8575 28.4752 52.8999 28.1368L53.4365 23.8243L50.4657 20.6809C50.2291 20.431 50.0642 20.1221 49.9882 19.7864C49.9122 19.4508 49.928 19.1009 50.0339 18.7735C50.1398 18.4461 50.3318 18.1532 50.5899 17.9257C50.848 17.6981 51.1626 17.5442 51.5007 17.4801L55.5832 16.6751L57.6532 12.8417C57.8174 12.5375 58.0609 12.2833 58.3579 12.1061C58.6548 11.929 58.9941 11.8354 59.3399 11.8354C59.6856 11.8354 60.025 11.929 60.3219 12.1061C60.6188 12.2833 60.8623 12.5375 61.0265 12.8417L63.0965 16.6751L67.3707 17.4801C67.7088 17.5442 68.0234 17.6981 68.2815 17.9257C68.5396 18.1532 68.7317 18.4461 68.8375 18.7735C68.9434 19.1009 68.9592 19.4508 68.8832 19.7864C68.8072 20.1221 68.6423 20.431 68.4057 20.6809L65.4349 23.8243L65.9715 28.1368C66.0042 28.4071 65.9789 28.6812 65.8974 28.941C65.8158 29.2008 65.6798 29.4402 65.4984 29.6433C65.3171 29.8464 65.0946 30.0086 64.8456 30.1189C64.5967 30.2293 64.3272 30.2854 64.0549 30.2834H64.1507ZM59.4165 24.2267C59.7002 24.2266 59.9809 24.2854 60.2407 24.3992L61.8124 25.1468L61.5824 23.4217C61.5487 23.1408 61.5776 22.8559 61.6671 22.5875C61.7566 22.3191 61.9044 22.0738 62.0999 21.8692L63.2882 20.5851L61.5824 20.2784C61.3032 20.2238 61.0397 20.1078 60.811 19.9387C60.5822 19.7696 60.394 19.5518 60.2599 19.3009L59.4165 17.7868L58.5732 19.3009C58.4391 19.5518 58.2509 19.7696 58.0221 19.9387C57.7934 20.1078 57.5299 20.2238 57.2507 20.2784L55.5449 20.5851L56.7332 21.8692C56.9287 22.0738 57.0765 22.3191 57.166 22.5875C57.2555 22.8559 57.2844 23.1408 57.2507 23.4217L57.0207 25.1468L58.5924 24.3992C58.8522 24.2854 59.1328 24.2266 59.4165 24.2267Z" fill="black"/>
<path d="M43.0673 30.2834C42.7897 30.2849 42.515 30.226 42.2623 30.1109L38.3332 28.1942L34.404 30.1109C34.096 30.251 33.7565 30.307 33.4198 30.2733C33.0832 30.2397 32.7615 30.1175 32.4873 29.9193C32.2125 29.7172 31.9965 29.4455 31.8618 29.1322C31.727 28.8188 31.6783 28.4752 31.7207 28.1368L32.2573 23.8243L29.2865 20.6809C29.0499 20.431 28.885 20.1221 28.809 19.7864C28.733 19.4508 28.7488 19.1009 28.8547 18.7735C28.9606 18.4461 29.1526 18.1532 29.4107 17.9257C29.6688 17.6981 29.9834 17.5442 30.3215 17.4801L34.4998 16.6751L36.5698 12.8417C36.7341 12.5375 36.9776 12.2833 37.2745 12.1061C37.5714 11.929 37.9107 11.8354 38.2565 11.8354C38.6023 11.8354 38.9416 11.929 39.2385 12.1061C39.5355 12.2833 39.7789 12.5375 39.9432 12.8417L42.0132 16.6751L46.2873 17.4801C46.6254 17.5442 46.94 17.6981 47.1981 17.9257C47.4562 18.1532 47.6483 18.4461 47.7542 18.7735C47.86 19.1009 47.8758 19.4508 47.7998 19.7864C47.7238 20.1221 47.5589 20.431 47.3223 20.6809L44.3515 23.8243L44.8882 28.1368C44.9209 28.4071 44.8956 28.6812 44.814 28.941C44.7324 29.2008 44.5964 29.4402 44.4151 29.6433C44.2337 29.8464 44.0112 30.0086 43.7623 30.1189C43.5134 30.2293 43.2438 30.2854 42.9715 30.2834H43.0673ZM38.3332 24.2267C38.6169 24.2266 38.8975 24.2854 39.1573 24.3992L40.729 25.1468L40.499 23.4217C40.4653 23.1408 40.4943 22.8559 40.5837 22.5875C40.6732 22.3191 40.821 22.0738 41.0165 21.8692L42.2048 20.5851L40.499 20.2784C40.2198 20.2238 39.9563 20.1078 39.7276 19.9387C39.4988 19.7696 39.3106 19.5518 39.1765 19.3009L38.3332 17.7868L37.4898 19.3009C37.3558 19.5518 37.1675 19.7696 36.9388 19.9387C36.71 20.1078 36.4465 20.2238 36.1673 20.2784L34.4615 20.5851L35.6498 21.8692C35.8453 22.0738 35.9931 22.3191 36.0826 22.5875C36.1721 22.8559 36.201 23.1408 36.1673 23.4217L35.9373 25.1468L37.509 24.3992C37.7688 24.2854 38.0495 24.2266 38.3332 24.2267Z" fill="black"/>
<path d="M21.984 30.2834C21.7063 30.2849 21.4316 30.226 21.179 30.1109L17.2498 28.1942L13.4165 30.1109C13.1085 30.251 12.7689 30.307 12.4323 30.2733C12.0957 30.2397 11.7739 30.1175 11.4998 29.9193C11.225 29.7172 11.009 29.4455 10.8742 29.1322C10.7395 28.8188 10.6908 28.4752 10.7331 28.1368L11.2698 23.8243L8.18397 20.6809C7.9474 20.431 7.78247 20.1221 7.70649 19.7864C7.63051 19.4508 7.64628 19.1009 7.75215 18.7735C7.85802 18.4461 8.05009 18.1532 8.30818 17.9257C8.56628 17.6981 8.88088 17.5442 9.21897 17.4801L13.4165 16.6751L15.4865 12.8417C15.6507 12.5375 15.8942 12.2833 16.1911 12.1061C16.488 11.929 16.8274 11.8354 17.1731 11.8354C17.5189 11.8354 17.8582 11.929 18.1552 12.1061C18.4521 12.2833 18.6956 12.5375 18.8598 12.8417L20.9298 16.6751L25.204 17.4801C25.5421 17.5442 25.8567 17.6981 26.1148 17.9257C26.3729 18.1532 26.5649 18.4461 26.6708 18.7735C26.7767 19.1009 26.7924 19.4508 26.7165 19.7864C26.6405 20.1221 26.4755 20.431 26.239 20.6809L23.2681 23.8243L23.8048 28.1368C23.8375 28.4071 23.8122 28.6812 23.7306 28.941C23.649 29.2008 23.5131 29.4402 23.3317 29.6433C23.1504 29.8464 22.9278 30.0086 22.6789 30.1189C22.43 30.2293 22.1604 30.2854 21.8881 30.2834H21.984ZM17.2498 24.2267C17.5335 24.2266 17.8141 24.2854 18.074 24.3992L19.6456 25.1468L19.4156 23.4217C19.382 23.1408 19.4109 22.8559 19.5004 22.5875C19.5898 22.3191 19.7376 22.0738 19.9331 21.8692L21.1215 20.5851L19.4156 20.2784C19.1365 20.2238 18.873 20.1078 18.6442 19.9387C18.4155 19.7696 18.2272 19.5518 18.0931 19.3009L17.2498 17.7868L16.4065 19.3009C16.2724 19.5518 16.0841 19.7696 15.8554 19.9387C15.6266 20.1078 15.3631 20.2238 15.084 20.2784L13.4165 20.5851L14.6048 21.8692C14.8003 22.0738 14.9481 22.3191 15.0376 22.5875C15.127 22.8559 15.156 23.1408 15.1223 23.4217L14.8923 25.1468L16.464 24.3992C16.712 24.2904 16.979 24.2318 17.2498 24.2267Z" fill="black"/>
<path d="M85.2341 30.2834C84.9564 30.2849 84.6817 30.226 84.4291 30.1109L80.5957 28.1942L76.7624 30.1109C76.4544 30.251 76.1149 30.307 75.7782 30.2733C75.4416 30.2397 75.1199 30.1175 74.8457 29.9193C74.5709 29.7172 74.3549 29.4455 74.2202 29.1322C74.0854 28.8188 74.0367 28.4752 74.0791 28.1368L74.6157 23.8243L71.6449 20.6809C71.4083 20.431 71.2434 20.1221 71.1674 19.7864C71.0914 19.4508 71.1072 19.1009 71.2131 18.7735C71.319 18.4461 71.511 18.1532 71.7691 17.9257C72.0272 17.6981 72.3418 17.5442 72.6799 17.4801L76.6666 16.6751L78.7366 12.8417C78.9008 12.5375 79.1443 12.2833 79.4412 12.1061C79.7382 11.929 80.0775 11.8354 80.4232 11.8354C80.769 11.8354 81.1083 11.929 81.4053 12.1061C81.7022 12.2833 81.9457 12.5375 82.1099 12.8417L84.1799 16.6751L88.4541 17.4801C88.7922 17.5442 89.1068 17.6981 89.3649 17.9257C89.623 18.1532 89.815 18.4461 89.9209 18.7735C90.0268 19.1009 90.0425 19.4508 89.9666 19.7864C89.8906 20.1221 89.7256 20.431 89.4891 20.6809L86.5182 23.8243L87.0549 28.1368C87.0876 28.4071 87.0623 28.6812 86.9807 28.941C86.8991 29.2008 86.7632 29.4402 86.5818 29.6433C86.4005 29.8464 86.1779 30.0086 85.929 30.1189C85.6801 30.2293 85.4105 30.2854 85.1382 30.2834H85.2341ZM80.4999 24.2267C80.7836 24.2266 81.0642 24.2854 81.3241 24.3992L82.8957 25.1468L82.6657 23.4217C82.6321 23.1408 82.661 22.8559 82.7505 22.5875C82.8399 22.3191 82.9877 22.0738 83.1832 21.8692L84.3716 20.5851L82.6657 20.2784C82.3866 20.2238 82.1231 20.1078 81.8943 19.9387C81.6656 19.7696 81.4773 19.5518 81.3432 19.3009L80.4999 17.7868L79.6566 19.3009C79.5225 19.5518 79.3342 19.7696 79.1055 19.9387C78.8767 20.1078 78.6132 20.2238 78.3341 20.2784L76.6282 20.5851L77.8166 21.8692C78.0121 22.0738 78.1599 22.3191 78.2493 22.5875C78.3388 22.8559 78.3678 23.1408 78.3341 23.4217L78.1041 25.1468L79.6757 24.3992C79.9356 24.2854 80.2162 24.2266 80.4999 24.2267Z" fill="black"/>
<path d="M106.318 30.2834C106.04 30.2849 105.765 30.226 105.513 30.1109L101.679 28.1942L97.8459 30.1109C97.5379 30.251 97.1984 30.307 96.8617 30.2733C96.5251 30.2397 96.2034 30.1175 95.9292 29.9193C95.6544 29.7172 95.4384 29.4455 95.3037 29.1322C95.1689 28.8188 95.1202 28.4752 95.1626 28.1368L95.6992 23.8243L92.7284 20.6809C92.4918 20.431 92.3269 20.1221 92.2509 19.7864C92.1749 19.4508 92.1907 19.1009 92.2966 18.7735C92.4025 18.4461 92.5945 18.1532 92.8526 17.9257C93.1107 17.6981 93.4253 17.5442 93.7634 17.4801L97.7501 16.6751L99.8201 12.8417C99.9843 12.5375 100.228 12.2833 100.525 12.1061C100.822 11.929 101.161 11.8354 101.507 11.8354C101.853 11.8354 102.192 11.929 102.489 12.1061C102.786 12.2833 103.029 12.5375 103.193 12.8417L105.263 16.6751L109.538 17.4801C109.876 17.5442 110.19 17.6981 110.448 17.9257C110.706 18.1532 110.899 18.4461 111.004 18.7735C111.11 19.1009 111.126 19.4508 111.05 19.7864C110.974 20.1221 110.809 20.431 110.573 20.6809L107.602 23.8243L108.138 28.1368C108.171 28.4071 108.146 28.6812 108.064 28.941C107.983 29.2008 107.847 29.4402 107.665 29.6433C107.484 29.8464 107.261 30.0086 107.013 30.1189C106.764 30.2293 106.494 30.2854 106.222 30.2834H106.318ZM101.583 24.2267C101.867 24.2266 102.148 24.2854 102.408 24.3992L103.979 25.1468L103.749 23.4217C103.716 23.1408 103.744 22.8559 103.834 22.5875C103.923 22.3191 104.071 22.0738 104.267 21.8692L105.455 20.5851L103.749 20.2784C103.47 20.2238 103.207 20.1078 102.978 19.9387C102.749 19.7696 102.561 19.5518 102.427 19.3009L101.583 17.7868L100.74 19.3009C100.606 19.5518 100.418 19.7696 100.189 19.9387C99.9602 20.1078 99.6967 20.2238 99.4176 20.2784L97.7117 20.5851L98.9001 21.8692C99.0956 22.0738 99.2434 22.3191 99.3328 22.5875C99.4223 22.8559 99.4513 23.1408 99.4176 23.4217L99.1876 25.1468L100.759 24.3992C101.019 24.2854 101.3 24.2266 101.583 24.2267Z" fill="black"/>
<path d="M105.417 42.1667H82.4167C81.9083 42.1667 81.4208 41.9647 81.0614 41.6053C80.7019 41.2458 80.5 40.7583 80.5 40.25V37.375C80.5 36.6125 80.1971 35.8812 79.6579 35.3421C79.1188 34.8029 78.3875 34.5 77.625 34.5C76.8625 34.5 76.1312 34.8029 75.5921 35.3421C75.0529 35.8812 74.75 36.6125 74.75 37.375V40.25C74.75 40.7583 74.5481 41.2458 74.1886 41.6053C73.8292 41.9647 73.3417 42.1667 72.8333 42.1667H13.4167C9.85835 42.1667 6.44576 40.7531 3.92965 38.237C1.41354 35.7209 0 32.3083 0 28.75V13.4167C0 9.85835 1.41354 6.44576 3.92965 3.92965C6.44576 1.41354 9.85835 0 13.4167 0H105.417C108.975 0 112.388 1.41354 114.904 3.92965C117.42 6.44576 118.833 9.85835 118.833 13.4167V28.75C118.833 32.3083 117.42 35.7209 114.904 38.237C112.388 40.7531 108.975 42.1667 105.417 42.1667ZM84.3333 38.3333H105.417C107.958 38.3333 110.396 37.3237 112.193 35.5264C113.99 33.7292 115 31.2917 115 28.75V13.4167C115 10.875 113.99 8.43745 112.193 6.64023C110.396 4.843 107.958 3.83333 105.417 3.83333H13.4167C10.875 3.83333 8.43745 4.843 6.64023 6.64023C4.843 8.43745 3.83333 10.875 3.83333 13.4167V28.75C3.83333 31.2917 4.843 33.7292 6.64023 35.5264C8.43745 37.3237 10.875 38.3333 13.4167 38.3333H70.9167V37.375C70.9167 35.5958 71.6234 33.8895 72.8815 32.6315C74.1396 31.3734 75.8458 30.6667 77.625 30.6667C79.4042 30.6667 81.1105 31.3734 82.3685 32.6315C83.6266 33.8895 84.3333 35.5958 84.3333 37.375V38.3333Z" fill="black"/>
<path d="M88.1668 92H86.2502C79.6419 92 73.3042 89.3748 68.6314 84.702C63.9586 80.0293 61.3335 73.6916 61.3335 67.0833V61.3333C61.3317 58.6143 62.2934 55.9827 64.0478 53.9054C65.8022 51.8282 68.2359 50.4398 70.9168 49.9866V37.375C70.9168 35.5958 71.6236 33.8895 72.8817 32.6314C74.1397 31.3734 75.846 30.6666 77.6252 30.6666C79.4043 30.6666 81.1106 31.3734 82.3687 32.6314C83.6267 33.8895 84.3335 35.5958 84.3335 37.375V48.5683C85.2304 48.1369 86.2133 47.9141 87.2085 47.9166C88.3575 47.9072 89.4898 48.193 90.4966 48.7468C91.5034 49.3005 92.3512 50.1037 92.9585 51.0791C94.0761 50.2762 95.4157 49.8408 96.7918 49.8333C97.9409 49.8238 99.0731 50.1097 100.08 50.6634C101.087 51.2172 101.934 52.0203 102.542 52.9958C103.659 52.1929 104.999 51.7575 106.375 51.75C108.154 51.75 109.861 52.4567 111.119 53.7148C112.377 54.9728 113.083 56.6791 113.083 58.4583V67.0833C113.083 70.3554 112.439 73.5955 111.187 76.6185C109.935 79.6415 108.099 82.3883 105.786 84.702C103.472 87.0158 100.725 88.8511 97.702 90.1033C94.679 91.3555 91.4389 92 88.1668 92ZM77.6252 34.5C76.8627 34.5 76.1314 34.8029 75.5922 35.342C75.0531 35.8812 74.7502 36.6125 74.7502 37.375V51.75C74.7502 52.2583 74.5482 52.7458 74.1888 53.1052C73.8293 53.4647 73.3418 53.6666 72.8335 53.6666C70.8002 53.6666 68.8501 54.4744 67.4123 55.9121C65.9746 57.3499 65.1668 59.3 65.1668 61.3333V67.0833C65.1668 72.6749 67.3881 78.0376 71.342 81.9915C75.2959 85.9454 80.6585 88.1666 86.2502 88.1666H88.1668C93.7585 88.1666 99.1211 85.9454 103.075 81.9915C107.029 78.0376 109.25 72.6749 109.25 67.0833V58.4583C109.25 57.6958 108.947 56.9645 108.408 56.4254C107.869 55.8862 107.138 55.5833 106.375 55.5833C105.613 55.5833 104.881 55.8862 104.342 56.4254C103.803 56.9645 103.5 57.6958 103.5 58.4583C103.5 58.9666 103.298 59.4541 102.939 59.8136C102.579 60.173 102.092 60.375 101.583 60.375C101.075 60.375 100.588 60.173 100.228 59.8136C99.8688 59.4541 99.6668 58.9666 99.6668 58.4583V56.5416C99.6668 55.7791 99.3639 55.0479 98.8248 54.5087C98.2856 53.9695 97.5543 53.6666 96.7918 53.6666C96.0293 53.6666 95.2981 53.9695 94.7589 54.5087C94.2197 55.0479 93.9168 55.7791 93.9168 56.5416C93.9168 57.05 93.7149 57.5375 93.3555 57.8969C92.996 58.2564 92.5085 58.4583 92.0002 58.4583C91.4918 58.4583 91.0043 58.2564 90.6449 57.8969C90.2854 57.5375 90.0835 57.05 90.0835 56.5416V54.625C90.0835 53.8625 89.7806 53.1312 89.2414 52.592C88.7023 52.0529 87.971 51.75 87.2085 51.75C86.446 51.75 85.7147 52.0529 85.1756 52.592C84.6364 53.1312 84.3335 53.8625 84.3335 54.625C84.3335 55.1333 84.1316 55.6208 83.7721 55.9802C83.4127 56.3397 82.9252 56.5416 82.4168 56.5416C81.9085 56.5416 81.421 56.3397 81.0615 55.9802C80.7021 55.6208 80.5002 55.1333 80.5002 54.625V37.375C80.5002 36.6125 80.1973 35.8812 79.6581 35.342C79.1189 34.8029 78.3877 34.5 77.6252 34.5Z" fill="black"/>
<path d="M72.8332 67.0834C72.3248 67.0834 71.8373 66.8814 71.4779 66.522C71.1184 66.1626 70.9165 65.675 70.9165 65.1667V51.75C70.9165 51.2417 71.1184 50.7542 71.4779 50.3948C71.8373 50.0353 72.3248 49.8334 72.8332 49.8334C73.3415 49.8334 73.829 50.0353 74.1885 50.3948C74.5479 50.7542 74.7498 51.2417 74.7498 51.75V65.1667C74.7498 65.675 74.5479 66.1626 74.1885 66.522C73.829 66.8814 73.3415 67.0834 72.8332 67.0834Z" fill="black"/>
</svg>

<svg width="119" height="92" fill="none" xmlns="http://www.w3.org/2000/svg"><path d="M64.15 30.283a1.917 1.917 0 0 1-.804-.172l-3.834-1.917-3.929 1.917a1.916 1.916 0 0 1-1.916-.192 1.917 1.917 0 0 1-.767-1.782l.537-4.313-2.971-3.143a1.916 1.916 0 0 1 1.035-3.2l4.082-.806 2.07-3.833a1.917 1.917 0 0 1 3.373 0l2.07 3.833 4.275.805a1.917 1.917 0 0 1 1.035 3.2l-2.971 3.144.537 4.313a1.917 1.917 0 0 1-1.917 2.146h.096zm-4.734-6.056c.284 0 .565.058.825.172l1.571.748-.23-1.725a1.916 1.916 0 0 1 .518-1.553l1.188-1.284-1.706-.307a1.916 1.916 0 0 1-1.322-.977l-.843-1.514-.844 1.514a1.916 1.916 0 0 1-1.322.977l-1.706.307 1.188 1.284a1.918 1.918 0 0 1 .518 1.553l-.23 1.725 1.571-.748c.26-.114.54-.172.825-.172zM43.067 30.283a1.917 1.917 0 0 1-.805-.172l-3.929-1.917-3.929 1.917a1.916 1.916 0 0 1-1.917-.192 1.917 1.917 0 0 1-.766-1.782l.536-4.313-2.97-3.143a1.916 1.916 0 0 1 1.035-3.2l4.178-.806 2.07-3.833a1.918 1.918 0 0 1 3.373 0l2.07 3.833 4.274.805a1.917 1.917 0 0 1 1.035 3.2l-2.97 3.144.536 4.313a1.916 1.916 0 0 1-1.916 2.146h.095zm-4.734-6.056c.284 0 .565.058.824.172l1.572.748-.23-1.725a1.917 1.917 0 0 1 .517-1.553l1.189-1.284-1.706-.307a1.916 1.916 0 0 1-1.323-.977l-.843-1.514-.843 1.514a1.916 1.916 0 0 1-1.323.977l-1.706.307 1.189 1.284a1.918 1.918 0 0 1 .517 1.553l-.23 1.725 1.572-.748c.26-.114.54-.172.824-.172zM21.984 30.283a1.917 1.917 0 0 1-.805-.172l-3.93-1.917-3.832 1.917a1.916 1.916 0 0 1-1.917-.192 1.918 1.918 0 0 1-.767-1.782l.537-4.313-3.086-3.143a1.916 1.916 0 0 1 1.035-3.2l4.197-.806 2.07-3.833a1.917 1.917 0 0 1 3.374 0l2.07 3.833 4.274.805a1.917 1.917 0 0 1 1.035 3.2l-2.97 3.144.536 4.313a1.916 1.916 0 0 1-1.917 2.146h.096zm-4.734-6.056c.284 0 .564.058.824.172l1.572.748-.23-1.725a1.917 1.917 0 0 1 .517-1.553l1.189-1.284-1.706-.307a1.917 1.917 0 0 1-1.323-.977l-.843-1.514-.843 1.514a1.917 1.917 0 0 1-1.323.977l-1.668.307 1.189 1.284a1.918 1.918 0 0 1 .517 1.553l-.23 1.725 1.572-.748c.248-.109.515-.167.786-.172zM85.234 30.283a1.917 1.917 0 0 1-.805-.172l-3.833-1.917-3.834 1.917a1.916 1.916 0 0 1-1.916-.192 1.917 1.917 0 0 1-.767-1.782l.537-4.313-2.971-3.143a1.916 1.916 0 0 1 1.035-3.2l3.987-.806 2.07-3.833a1.917 1.917 0 0 1 3.373 0l2.07 3.833 4.274.805a1.917 1.917 0 0 1 1.035 3.2l-2.97 3.144.536 4.313a1.916 1.916 0 0 1-1.917 2.146h.096zM80.5 24.227c.284 0 .564.058.824.172l1.572.748-.23-1.725a1.917 1.917 0 0 1 .517-1.553l1.189-1.284-1.706-.307a1.917 1.917 0 0 1-1.323-.977l-.843-1.514-.843 1.514a1.917 1.917 0 0 1-1.323.977l-1.706.307 1.189 1.284a1.916 1.916 0 0 1 .517 1.553l-.23 1.725 1.572-.748c.26-.114.54-.172.824-.172zM106.318 30.283a1.914 1.914 0 0 1-.805-.172l-3.834-1.917-3.833 1.917a1.916 1.916 0 0 1-1.917-.192 1.917 1.917 0 0 1-.766-1.782l.536-4.313-2.97-3.143a1.916 1.916 0 0 1 1.034-3.2l3.987-.806 2.07-3.833a1.917 1.917 0 0 1 3.373 0l2.07 3.833 4.275.805a1.914 1.914 0 0 1 1.512 2.306 1.92 1.92 0 0 1-.477.895l-2.971 3.143.536 4.313a1.904 1.904 0 0 1-.473 1.506 1.918 1.918 0 0 1-1.443.64h.096zm-4.735-6.056c.284 0 .565.058.825.172l1.571.748-.23-1.725a1.919 1.919 0 0 1 .518-1.553l1.188-1.284-1.706-.307a1.917 1.917 0 0 1-1.322-.977l-.844-1.514-.843 1.514a1.912 1.912 0 0 1-1.322.977l-1.706.307L98.9 21.87a1.916 1.916 0 0 1 .518 1.553l-.23 1.725 1.571-.748c.26-.114.541-.172.824-.172z" fill="#000"/><path d="M105.417 42.167h-23A1.917 1.917 0 0 1 80.5 40.25v-2.875a2.875 2.875 0 1 0-5.75 0v2.875a1.917 1.917 0 0 1-1.917 1.917H13.417A13.417 13.417 0 0 1 0 28.75V13.417A13.417 13.417 0 0 1 13.417 0h92a13.417 13.417 0 0 1 13.416 13.417V28.75a13.416 13.416 0 0 1-13.416 13.417zm-21.084-3.834h21.084A9.583 9.583 0 0 0 115 28.75V13.417a9.584 9.584 0 0 0-9.583-9.584h-92a9.583 9.583 0 0 0-9.584 9.584V28.75a9.583 9.583 0 0 0 9.584 9.583h57.5v-.958a6.708 6.708 0 1 1 13.416 0v.958z" fill="#000"/><path d="M88.167 92H86.25a24.917 24.917 0 0 1-24.916-24.917v-5.75a11.5 11.5 0 0 1 9.583-11.346V37.375a6.708 6.708 0 0 1 13.416 0v11.193a6.595 6.595 0 0 1 2.876-.651 6.709 6.709 0 0 1 5.75 3.162 6.632 6.632 0 0 1 3.833-1.246 6.709 6.709 0 0 1 5.75 3.163 6.63 6.63 0 0 1 3.833-1.246 6.71 6.71 0 0 1 6.708 6.708v8.625a24.92 24.92 0 0 1-15.381 23.02A24.916 24.916 0 0 1 88.167 92zM77.625 34.5a2.875 2.875 0 0 0-2.875 2.875V51.75a1.917 1.917 0 0 1-1.916 1.917 7.667 7.667 0 0 0-7.667 7.666v5.75A21.084 21.084 0 0 0 86.25 88.167h1.917a21.083 21.083 0 0 0 21.083-21.084v-8.625a2.875 2.875 0 0 0-5.75 0 1.918 1.918 0 0 1-1.917 1.917 1.918 1.918 0 0 1-1.916-1.917v-1.916a2.875 2.875 0 0 0-5.75 0 1.917 1.917 0 1 1-3.834 0v-1.917a2.875 2.875 0 0 0-5.75 0 1.916 1.916 0 1 1-3.833 0v-17.25a2.875 2.875 0 0 0-2.875-2.875z" fill="#000"/><path d="M72.833 67.083a1.917 1.917 0 0 1-1.916-1.916V51.75a1.916 1.916 0 1 1 3.833 0v13.417a1.917 1.917 0 0 1-1.917 1.916z" fill="#000"/></svg>
